public/svg/email.svg

<!DOCTYPE svg PUBLIC "-//W3C//DTD SVG 1.1//EN" "http://www.w3.org/Graphics/SVG/1.1/DTD/svg11.dtd">

<!-- Uploaded to: SVG Repo, www.svgrepo.com, Transformed by: SVG Repo Mixer Tools -->
<svg width="60px" height="60px" viewBox="0 0 24 24" fill="none" xmlns="http://www.w3.org/2000/svg" stroke="">

<g id="SVGRepo_bgCarrier" stroke-width="0"/>

<g id="SVGRepo_tracerCarrier" stroke-linecap="round" stroke-linejoin="round"/>

<g id="SVGRepo_iconCarrier"> <path fill-rule="evenodd" clip-rule="evenodd" d="M3.75 5.25L3 6V18L3.75 18.75H20.25L21 18V6L20.25 5.25H3.75ZM4.5 7.6955V17.25H19.5V7.69525L11.9999 14.5136L4.5 7.6955ZM18.3099 6.75H5.68986L11.9999 12.4864L18.3099 6.75Z" fill="#CDAB62"/> </g>

</svg>

<svg xmlns="http://www.w3.org/2000/svg" width="60" height="60" fill="none" viewBox="0 0 24 24"><path fill="#CDAB62" fill-rule="evenodd" d="M3.75 5.25 3 6v12l.75.75h16.5L21 18V6l-.75-.75H3.75Zm.75 2.446v9.554h15V7.695L12 14.514 4.5 7.696Zm13.81-.946H5.69L12 12.486l6.31-5.736Z" clip-rule="evenodd"/></svg>
